X:307
T:R\'i na bP\'iobair\'i
T:King of the Pipers, The
R:jig
H:There are 3 other tunes called "King of the Pipers": #8, #66, #219
Z:id:hn-jig-307
M:6/8
K:Dmix
d|:cAG A2D|DED AdB|cAG ~A3|DED GED|
cAG A2D|DED AGE|FDF E^CE|DEF GED:|
|:d2e fdf|e^cA AFA|d2e fed|f/g/af gfe|
d2e fdf|e^cA AGE|FDF E^CE|DEF GED:|
|:B2G AGA|BGE Edc|B2G AGE|GED Ddc|
B2G AGA|BGE E2^c|d^cd A2G|1 FDD Ddc:|2 FDD DdB||
